X: 3
T: The Banks Of Lough Gowna
R: jig
M: 6/8
L: 1/8
K: Bmin
~B3 BAF|FEF DFA|BdB BAF|d2e fed|~B3 BAF|FEF DFA|def geg|fdB B2A:|def ~a3|afb afe|dFA def|gag fdB|def ~a3|afb afe|def geg|fdB B2A:|


Tune 775	Setting 25888

